X: 40
M: 6/8
L: 1/8
K: Gm
|: G/F/ |\
bag fdd | fdd ecc | dg2 fdc | BGG G2 :|
|: d |\
gfg def | Bcd f2d | gfe dcB | gfe d2a |
bag fdd | fdd dcc | dg2 fdc | BGG G2 :|




